; generated by PrusaSlicer 2.5.2+win64 on 2023-05-08 at 13:33:40 UTC


;
;

;
;
; 

; external perimeters extrusion width = 0.45mm
; perimeters extrusion width = 0.45mm
; infill extrusion width = 0.45mm
; solid infill extrusion width = 0.45mm
; top infill extrusion width = 0.40mm
; first layer extrusion width = 0.42mm

; external perimeters extrusion width = 0.45mm
; perimeters extrusion width = 0.45mm
; infill extrusion width = 0.45mm
; solid infill extrusion width = 0.45mm
; top infill extrusion width = 0.40mm
; first layer extrusion width = 0.42mm

; external perimeters extrusion width = 0.45mm
; perimeters extrusion width = 0.45mm
; infill extrusion width = 0.45mm
; solid infill extrusion width = 0.45mm
; top infill extrusion width = 0.40mm
; first layer extrusion width = 0.42mm

M73 P0 R165
M201 X2500 Y2500 Z400 E5000 ; sets maximum accelerations, mm/sec^2
M203 X180 Y180 Z12 E80 ; sets maximum feedrates, mm / sec
M204 P2000 R1250 T2500 ; sets acceleration (P, T) and retract acceleration (R), mm/sec^2
M205 X8.00 Y8.00 Z2.00 E10.00 ; sets the jerk limits, mm/sec
M205 S0 T0 ; sets the minimum extruding and travel feed rate, mm/sec
M107
;TYPE:Custom
M862.3 P "MINI" ; printer model check
G90 ; use absolute coordinates
M83 ; extruder relative mode
M104 S170 ; set extruder temp for bed leveling
M140 S60 ; set bed temp
M109 R170 ; wait for bed leveling temp
M190 S60 ; wait for bed temp
M204 T1250 ; set travel acceleration
G28 ; home all without mesh bed level
G29 ; mesh bed leveling 
M204 T2500 ; restore travel acceleration
M104 S215 ; set extruder temp
G92 E0
G1 Y-2 X179 F2400
G1 Z3 F720
M109 S215 ; wait for extruder temp

; intro line
G1 X170 F1000
G1 Z0.2 F720
G1 X110 E8 F900
G1 X40 E10 F700
G92 E0

M221 S95 ; set flow
G21 ; set units to millimeters
G90 ; use absolute coordinates
M83 ; use relative distances for extrusion
M900 K0.2 ; Filament gcode LA 1.5
; ; Filament gcode LA 1.0
M107
;LAYER_CHANGE
;Z:0.2
;HEIGHT:0.2
;BEFORE_LAYER_CHANGE
G92 E0.0
;0.2


G1 E-3.2 F4200
G1 Z.2 F720
;AFTER_LAYER_CHANGE
;0.2
G1 Z.4
G1 X46.02 Y19.142 F9000
G1 Z.2 F720
G1 E3.2 F2400
M204 P600
;TYPE:Skirt/Brim
;WIDTH:0.42
G1 F1200
G1 X46.853 Y17.335 E.06239
G1 X47.811 Y16.7 E.03603
G1 X48.757 Y16.371 E.03141
G1 X82.794 Y10.302 E1.08403
G1 X101.628 Y10.302 E.59052
G1 X135.443 Y16.327 E1.07694
G1 X136.603 Y16.696 E.03819
M73 P0 R164
G1 X137.435 Y17.221 E.03084
G1 X137.908 Y17.692 E.02093
G1 X148.744 Y31.774 E.55712
G1 X149.237 Y33.224 E.04801
G1 X149.231 Y89.405 E1.76151
G1 X144.054 Y157.222 E2.13256
G1 X143.904 Y158.172 E.03014
G1 X143.677 Y158.797 E.02085
G1 X143.355 Y159.378 E.02085
G1 X142.945 Y159.902 E.02084
G1 X142.459 Y160.356 E.02085
G1 X141.908 Y160.728 E.02085
G1 X141.306 Y161.009 E.02084
G1 X140.667 Y161.193 E.02084
G1 X139.821 Y161.281 E.02668
G1 X54.821 Y161.281 E2.66512
G1 X53.69 Y161.125 E.03579
G1 X53.065 Y160.897 E.02084
G1 X52.484 Y160.575 E.02084
G1 X51.696 Y159.902 E.03248
G1 X51.287 Y159.378 E.02084
G1 X50.965 Y158.797 E.02085
G1 X50.738 Y158.172 E.02085
G1 X50.611 Y157.519 E.02084
G1 X46.025 Y78.279 E2.48868
G1 X46.02 Y19.202 E1.85232
M204 P1000
; printing object sestava - base-1.STL id:0 copy 0
G1 E-2.24 F4200
;WIPE_START
G1 F7200
G1 X46.69 Y17.699 E-.912
;WIPE_END
G1 E-.048 F4200
G1 Z.4 F720
G1 X55.12 Y119.271 F9000
G1 Z.2 F720
G1 E3.2 F2400
M204 P600
;TYPE:Perimeter
;WIDTH:0.419999
G1 F1200
G1 X55.042 Y119.254 E.00248
G1 X54.176 Y119.254 E.02717
G1 X54.176 Y101.153 E.56755
G1 X54.198 Y100.95 E.00642
G1 X54.312 Y100.658 E.00982
G1 X54.529 Y100.484 E.00872
G1 X54.873 Y100.396 E.01114
G1 X139.711 Y100.398 E2.66002
G1 X140.017 Y100.435 E.00966
G1 X140.264 Y100.597 E.00925
G1 X140.427 Y100.843 E.00927
G1 X140.466 Y101.153 E.00979
G1 X140.466 Y156.93 E1.74884
G1 X140.443 Y157.133 E.00642
G1 X140.329 Y157.425 E.00982
G1 X140.113 Y157.599 E.00872
G1 X139.768 Y157.687 E.01114
G1 X54.932 Y157.687 E2.65996
G1 X54.722 Y157.663 E.00662
G1 X54.446 Y157.557 E.00928
G1 X54.26 Y157.328 E.00926
G1 X54.176 Y156.989 E.01095
G1 X54.176 Y138.829 E.5694
G1 X55.042 Y138.829 E.02717
G1 X55.274 Y138.779 E.00745
G1 X55.398 Y138.703 E.00454
G1 X55.549 Y138.513 E.00761
G1 X55.608 Y138.263 E.00806
G1 X55.608 Y119.82 E.57826
G1 X55.603 Y119.744 E.00238
G1 X55.506 Y119.497 E.00832
G1 X55.274 Y119.304 E.00946
G1 X55.178 Y119.284 E.00308
M204 P1000
G1 X55.042 Y119.631 F9000
M204 P600
;TYPE:External perimeter
G1 F1200
G1 X53.798 Y119.631 E.039
G1 X53.798 Y101.153 E.57938
G1 X53.851 Y100.727 E.01346
G1 X54.005 Y100.432 E.01044
G1 X54.221 Y100.217 E.00956
G1 X54.506 Y100.072 E.01
G1 X54.844 Y100.019 E.01074
G1 X139.711 Y100.021 E2.66094
G1 X140.135 Y100.072 E.0134
G1 X140.419 Y100.217 E.00998
G1 X140.652 Y100.454 E.01044
G1 X140.79 Y100.726 E.00955
G1 X140.843 Y101.153 E.01349
G1 X140.843 Y156.93 E1.74884
G1 X140.79 Y157.356 E.01346
G1 X140.636 Y157.651 E.01044
G1 X140.42 Y157.866 E.00956
G1 X140.136 Y158.011 E.01
G1 X139.797 Y158.064 E.01074
G1 X54.932 Y158.064 E2.66088
G1 X54.506 Y158.011 E.01348
G1 X54.222 Y157.866 E.00999
G1 X53.996 Y157.641 E.01
G1 X53.851 Y157.357 E.00999
G1 X53.798 Y157.018 E.01074
G1 X53.798 Y138.451 E.58214
G1 X55.042 Y138.451 E.039
G1 X55.161 Y138.41 E.00394
G1 X55.231 Y138.263 E.00509
G1 X55.231 Y119.82 E.57826
G1 X55.183 Y119.695 E.00419
G1 X55.097 Y119.656 E.00298
M204 P1000
G1 X54.939 Y119.245 F9000
G1 E-2.24 F4200
;WIPE_START
G1 F7200
G1 X53.798 Y119.631 E-.71968
G1 X53.798 Y119.284 E-.19232
;WIPE_END
G1 E-.048 F4200
G1 Z.4 F720
G1 X140.296 Y101.109 F9000
G1 Z.2 F720
G1 E3.2 F2400
M204 P600
;TYPE:Solid infill
;WIDTH:0.421335
G1 F1200
G1 X139.988 Y100.801 E.01369
G1 X139.91 Y100.761 E.00276
G1 X139.762 Y100.737 E.00472
G1 X139.39 Y100.737 E.01173
G1 X140.127 Y101.474 E.0328
G1 X140.127 Y102.01 E.01684
G1 X138.854 Y100.737 E.05661
G1 X138.319 Y100.737 E.01684
G1 X140.127 Y102.545 E.08042
G1 X140.127 Y103.08 E.01684
G1 X137.784 Y100.737 E.10424
G1 X137.249 Y100.737 E.01684
G1 X140.127 Y103.615 E.12805
G1 X140.127 Y104.15 E.01684
G1 X136.714 Y100.737 E.15187
G1 X136.179 Y100.737 E.01684
G1 X140.127 Y104.685 E.17568
G1 X140.127 Y105.221 E.01684
G1 X135.643 Y100.737 E.1995
G1 X135.108 Y100.737 E.01684
G1 X140.127 Y105.756 E.22331
G1 X140.127 Y106.291 E.01684
G1 X134.573 Y100.737 E.24713
G1 X134.038 Y100.737 E.01684
G1 X140.127 Y106.826 E.27094
G1 X140.127 Y107.361 E.01684
G1 X133.503 Y100.737 E.29475
G1 X132.967 Y100.737 E.01684
G1 X140.127 Y107.896 E.31857
G1 X140.127 Y108.432 E.01684
G1 X132.432 Y100.737 E.34238
G1 X131.897 Y100.737 E.01684
G1 X140.127 Y108.967 E.3662
G1 X140.127 Y109.502 E.01684
G1 X131.362 Y100.737 E.39001
G1 X130.827 Y100.737 E.01684
G1 X140.127 Y110.037 E.41383
G1 X140.127 Y110.572 E.01684
G1 X130.292 Y100.737 E.43764
G1 X129.756 Y100.737 E.01684
G1 X140.127 Y111.107 E.46146
G1 X140.127 Y111.642 E.01684
G1 X129.221 Y100.737 E.48527
G1 X128.686 Y100.737 E.01684
G1 X140.127 Y112.178 E.50908
G1 X140.127 Y112.713 E.01684
M73 P0 R163
G1 X128.151 Y100.737 E.5329
G1 X127.616 Y100.737 E.01684
G1 X140.127 Y113.248 E.55671
G1 X140.127 Y113.783 E.01684
G1 X127.081 Y100.737 E.58053
G1 X126.545 Y100.737 E.01684
G1 X140.127 Y114.318 E.60434
G1 X140.127 Y114.853 E.01684
G1 X126.01 Y100.737 E.62816
G1 X125.475 Y100.737 E.01684
G1 X140.127 Y115.389 E.65197
G1 X140.127 Y115.924 E.01684
G1 X124.94 Y100.737 E.67579
G1 X124.405 Y100.737 E.01684
G1 X140.127 Y116.459 E.6996
G1 X140.127 Y116.994 E.01684
G1 X123.87 Y100.737 E.72341
G1 X123.334 Y100.737 E.01684
G1 X140.127 Y117.529 E.74723
G1 X140.127 Y118.064 E.01684
G1 X122.799 Y100.737 E.77104
G1 X122.264 Y100.737 E.01684
G1 X140.127 Y118.6 E.79486
G1 X140.127 Y119.135 E.01684
G1 X121.729 Y100.737 E.81867
G1 X121.194 Y100.737 E.01684
G1 X140.127 Y119.67 E.84249
G1 X140.127 Y120.205 E.01684
G1 X120.659 Y100.737 E.8663
G1 X120.123 Y100.737 E.01684
G1 X140.127 Y120.74 E.89011
G1 X140.127 Y121.275 E.01684
M73 P1 R163
G1 X119.588 Y100.737 E.91393
G1 X119.053 Y100.737 E.01684
G1 X140.127 Y121.811 E.93774
G1 X140.127 Y122.346 E.01684
G1 X118.518 Y100.737 E.96156
G1 X117.983 Y100.737 E.01684
G1 X140.127 Y122.881 E.98537
G1 X140.127 Y123.416 E.01684
G1 X117.448 Y100.737 E1.00919
G1 X116.912 Y100.737 E.01684
G1 X140.127 Y123.951 E1.033
G1 X140.127 Y124.486 E.01684
G1 X116.377 Y100.737 E1.05682
G1 X115.842 Y100.737 E.01684
G1 X140.127 Y125.021 E1.08063
G1 X140.127 Y125.557 E.01684
G1 X115.307 Y100.737 E1.10444
G1 X114.772 Y100.737 E.01684
G1 X140.127 Y126.092 E1.12826
G1 X140.127 Y126.627 E.01684
G1 X114.237 Y100.737 E1.15207
G1 X113.701 Y100.737 E.01684
G1 X140.127 Y127.162 E1.17589
G1 X140.127 Y127.697 E.01684
G1 X113.166 Y100.737 E1.1997
G1 X112.631 Y100.737 E.01684
G1 X140.127 Y128.232 E1.22352
G1 X140.127 Y128.768 E.01684
G1 X112.096 Y100.737 E1.24733
G1 X111.561 Y100.737 E.01684
G1 X140.127 Y129.303 E1.27115
G1 X140.127 Y129.838 E.01684
G1 X111.025 Y100.737 E1.29496
G1 X110.49 Y100.737 E.01684
G1 X140.127 Y130.373 E1.31877
G1 X140.127 Y130.908 E.01684
G1 X109.955 Y100.737 E1.34259
G1 X109.42 Y100.737 E.01684
G1 X140.127 Y131.443 E1.3664
G1 X140.127 Y131.979 E.01684
G1 X108.885 Y100.737 E1.39022
G1 X108.35 Y100.737 E.01684
G1 X140.127 Y132.514 E1.41403
G1 X140.127 Y133.049 E.01684
M73 P1 R162
G1 X107.814 Y100.737 E1.43785
G1 X107.279 Y100.737 E.01684
G1 X140.127 Y133.584 E1.46166
G1 X140.127 Y134.119 E.01684
G1 X106.744 Y100.737 E1.48548
G1 X106.209 Y100.737 E.01684
G1 X140.127 Y134.654 E1.50929
G1 X140.127 Y135.19 E.01684
G1 X105.674 Y100.737 E1.5331
G1 X105.139 Y100.737 E.01684
G1 X140.127 Y135.725 E1.55692
G1 X140.127 Y136.26 E.01684
G1 X104.603 Y100.737 E1.58073
G1 X104.068 Y100.737 E.01684
G1 X140.127 Y136.795 E1.60455
G1 X140.127 Y137.33 E.01684
G1 X103.533 Y100.737 E1.62836
G1 X102.998 Y100.737 E.01684
G1 X140.127 Y137.865 E1.65218
G1 X140.127 Y138.4 E.01684
G1 X102.463 Y100.737 E1.67599
G1 X101.928 Y100.737 E.01684
G1 X140.127 Y138.936 E1.6998
G1 X140.127 Y139.471 E.01684
G1 X101.392 Y100.737 E1.72362
G1 X100.857 Y100.737 E.01684
G1 X140.127 Y140.006 E1.74743
G1 X140.127 Y140.541 E.01684
G1 X100.322 Y100.737 E1.77125
G1 X99.787 Y100.737 E.01684
G1 X140.127 Y141.076 E1.79506
G1 X140.127 Y141.611 E.01684
G1 X99.252 Y100.737 E1.81888
G1 X98.717 Y100.737 E.01684
G1 X140.127 Y142.147 E1.84269
G1 X140.127 Y142.682 E.01684
G1 X98.181 Y100.737 E1.86651
G1 X97.646 Y100.737 E.01684
G1 X140.127 Y143.217 E1.89032
G1 X140.127 Y143.752 E.01684
G1 X97.111 Y100.737 E1.91413
G1 X96.576 Y100.737 E.01684
G1 X140.127 Y144.287 E1.93795
G1 X140.127 Y144.822 E.01684
M73 P2 R161
G1 X96.041 Y100.737 E1.96176
G1 X95.506 Y100.737 E.01684
G1 X140.127 Y145.358 E1.98558
G1 X140.127 Y145.893 E.01684
G1 X94.97 Y100.737 E2.00939
G1 X94.435 Y100.736 E.01684
G1 X140.127 Y146.428 E2.03321
G1 X140.127 Y146.963 E.01684
G1 X93.9 Y100.736 E2.05702
G1 X93.365 Y100.736 E.01684
G1 X140.127 Y147.498 E2.08084
G1 X140.127 Y148.033 E.01684
G1 X92.83 Y100.736 E2.10465
G1 X92.294 Y100.736 E.01684
G1 X140.127 Y148.569 E2.12846
G1 X140.127 Y149.104 E.01684
G1 X91.759 Y100.736 E2.15228
G1 X91.224 Y100.736 E.01684
G1 X140.127 Y149.639 E2.17609
G1 X140.127 Y150.174 E.01684
G1 X90.689 Y100.736 E2.19991
G1 X90.154 Y100.736 E.01684
G1 X140.127 Y150.709 E2.22372
G1 X140.127 Y151.244 E.01684
G1 X89.619 Y100.736 E2.24754
G1 X89.083 Y100.736 E.01684
G1 X140.127 Y151.779 E2.27135
G1 X140.127 Y152.315 E.01684
G1 X88.548 Y100.736 E2.29517
G1 X88.013 Y100.736 E.01684
G1 X140.127 Y152.85 E2.31898
G1 X140.127 Y153.385 E.01684
G1 X87.478 Y100.736 E2.34279
G1 X86.943 Y100.736 E.01684
G1 X140.127 Y153.92 E2.36661
G1 X140.127 Y154.455 E.01684
M73 P2 R160
G1 X86.408 Y100.736 E2.39042
G1 X85.872 Y100.736 E.01684
G1 X140.127 Y154.99 E2.41424
G1 X140.127 Y155.526 E.01684
G1 X85.337 Y100.736 E2.43805
G1 X84.802 Y100.736 E.01684
G1 X140.127 Y156.061 E2.46187
G1 X140.127 Y156.596 E.01684
G1 X84.267 Y100.736 E2.48568
G1 X83.732 Y100.736 E.01684
G1 X140.104 Y157.108 E2.50848
G1 X140.052 Y157.221 E.00391
G1 X139.995 Y157.279 E.00255
G1 X139.912 Y157.321 E.00291
G1 X139.799 Y157.338 E.00362
G1 X83.197 Y100.736 E2.51872
G1 X82.661 Y100.736 E.01684
G1 X139.273 Y157.347 E2.51912
G1 X138.737 Y157.347 E.01684
G1 X82.126 Y100.736 E2.51912
G1 X81.591 Y100.736 E.01684
M73 P3 R160
G1 X138.202 Y157.347 E2.51912
G1 X137.667 Y157.347 E.01684
G1 X81.056 Y100.736 E2.51912
G1 X80.521 Y100.736 E.01684
G1 X137.132 Y157.347 E2.51912
G1 X136.597 Y157.347 E.01684
G1 X79.986 Y100.736 E2.51912
G1 X79.45 Y100.736 E.01684
G1 X136.062 Y157.347 E2.51912
G1 X135.526 Y157.347 E.01684
G1 X78.915 Y100.736 E2.51912
G1 X78.38 Y100.736 E.01684
M73 P3 R159
G1 X134.991 Y157.347 E2.51912
G1 X134.456 Y157.347 E.01684
G1 X77.845 Y100.736 E2.51912
G1 X77.31 Y100.736 E.01684
G1 X133.921 Y157.347 E2.51913
G1 X133.386 Y157.347 E.01684
G1 X76.775 Y100.736 E2.51913
G1 X76.239 Y100.736 E.01684
G1 X132.851 Y157.347 E2.51913
G1 X132.315 Y157.347 E.01684
G1 X75.704 Y100.736 E2.51913
G1 X75.169 Y100.736 E.01684
G1 X131.78 Y157.347 E2.51913
G1 X131.245 Y157.347 E.01684
G1 X74.634 Y100.736 E2.51913
G1 X74.099 Y100.736 E.01684
G1 X130.71 Y157.347 E2.51913
G1 X130.175 Y157.347 E.01684
G1 X73.564 Y100.736 E2.51913
G1 X73.028 Y100.736 E.01684
G1 X129.64 Y157.347 E2.51913
G1 X129.104 Y157.347 E.01684
G1 X72.493 Y100.736 E2.51913
G1 X71.958 Y100.736 E.01684
G1 X128.569 Y157.347 E2.51913
G1 X128.034 Y157.347 E.01684
G1 X71.423 Y100.736 E2.51913
G1 X70.888 Y100.736 E.01684
M73 P3 R158
G1 X127.499 Y157.347 E2.51913
G1 X126.964 Y157.347 E.01684
G1 X70.352 Y100.736 E2.51913
G1 X69.817 Y100.736 E.01684
G1 X126.429 Y157.347 E2.51913
G1 X125.894 Y157.347 E.01684
G1 X69.282 Y100.736 E2.51913
G1 X68.747 Y100.736 E.01684
M73 P4 R158
G1 X125.358 Y157.347 E2.51913
G1 X124.823 Y157.347 E.01684
G1 X68.212 Y100.736 E2.51913
G1 X67.677 Y100.736 E.01684
G1 X124.288 Y157.347 E2.51913
G1 X123.753 Y157.347 E.01684
G1 X67.141 Y100.736 E2.51913
G1 X66.606 Y100.736 E.01684
G1 X123.218 Y157.347 E2.51914
G1 X122.683 Y157.347 E.01684
G1 X66.071 Y100.736 E2.51914
G1 X65.536 Y100.736 E.01684
G1 X122.147 Y157.347 E2.51914
G1 X121.612 Y157.347 E.01684
G1 X65.001 Y100.736 E2.51914
G1 X64.466 Y100.736 E.01684
G1 X121.077 Y157.347 E2.51914
G1 X120.542 Y157.347 E.01684
G1 X63.93 Y100.736 E2.51914
G1 X63.395 Y100.736 E.01684
G1 X120.007 Y157.347 E2.51914
G1 X119.472 Y157.347 E.01684
M73 P4 R157
G1 X62.86 Y100.736 E2.51914
G1 X62.325 Y100.736 E.01684
G1 X118.936 Y157.347 E2.51914
G1 X118.401 Y157.347 E.01684
G1 X61.79 Y100.736 E2.51914
G1 X61.255 Y100.736 E.01684
G1 X117.866 Y157.347 E2.51914
G1 X117.331 Y157.347 E.01684
G1 X60.719 Y100.736 E2.51914
G1 X60.184 Y100.736 E.01684
G1 X116.796 Y157.347 E2.51914
G1 X116.261 Y157.347 E.01684
G1 X59.649 Y100.736 E2.51914
G1 X59.114 Y100.736 E.01684
G1 X115.725 Y157.347 E2.51914
G1 X115.19 Y157.347 E.01684
G1 X58.579 Y100.736 E2.51914
G1 X58.044 Y100.736 E.01684
G1 X114.655 Y157.347 E2.51914
G1 X114.12 Y157.347 E.01684
G1 X57.508 Y100.736 E2.51914
G1 X56.973 Y100.736 E.01684
G1 X113.585 Y157.347 E2.51914
G1 X113.05 Y157.347 E.01684
G1 X56.438 Y100.736 E2.51914
G1 X55.903 Y100.736 E.01684
G1 X112.515 Y157.347 E2.51915
G1 X111.979 Y157.347 E.01684
M73 P5 R157
G1 X55.368 Y100.736 E2.51915
G1 X54.845 Y100.748 E.01645
M73 P5 R156
G1 X111.444 Y157.347 E2.51859
G1 X110.909 Y157.347 E.01684
G1 X54.538 Y100.976 E2.50846
G1 X54.515 Y101.121 E.00461
G1 X54.515 Y101.488 E.01157
G1 X110.374 Y157.347 E2.48565
G1 X109.839 Y157.347 E.01684
G1 X54.515 Y102.023 E2.46184
G1 X54.515 Y102.559 E.01684
G1 X109.304 Y157.347 E2.43803
G1 X108.768 Y157.347 E.01684
G1 X54.515 Y103.094 E2.41421
G1 X54.515 Y103.629 E.01684
G1 X108.233 Y157.347 E2.3904
G1 X107.698 Y157.347 E.01684
G1 X54.515 Y104.164 E2.36658
G1 X54.515 Y104.699 E.01684
G1 X107.163 Y157.347 E2.34277
G1 X106.628 Y157.347 E.01684
G1 X54.515 Y105.234 E2.31896
G1 X54.515 Y105.77 E.01684
G1 X106.093 Y157.347 E2.29514
G1 X105.557 Y157.347 E.01684
G1 X54.515 Y106.305 E2.27133
G1 X54.515 Y106.84 E.01684
G1 X105.022 Y157.347 E2.24752
G1 X104.487 Y157.347 E.01684
G1 X54.515 Y107.375 E2.2237
G1 X54.515 Y107.91 E.01684
G1 X103.952 Y157.347 E2.19989
G1 X103.417 Y157.347 E.01684
G1 X54.515 Y108.445 E2.17607
G1 X54.515 Y108.981 E.01684
M73 P5 R155
